assets/2023/icons/cuh.svg

<svg width="16" height="16" viewBox="0 0 16 16" fill="none" xmlns="http://www.w3.org/2000/svg">
<path d="M3.02614 13.156C2.56681 13.156 2.19197 13.0195 1.90164 12.7465C1.61564 12.4692 1.40331 12.0423 1.26464 11.466C1.12597 10.8897 1.05664 10.1422 1.05664 9.22349V7.67649C1.05664 6.75782 1.12597 6.01032 1.26464 5.43399C1.40331 4.85765 1.61564 4.43299 1.90164 4.15999C2.19197 3.88265 2.56681 3.74399 3.02614 3.74399C3.44647 3.74399 3.79314 3.85015 4.06614 4.06249C4.34347 4.27049 4.55364 4.59549 4.69664 5.03749C4.83964 5.47949 4.92631 6.05149 4.95664 6.75349H3.86464C3.84731 6.28115 3.80614 5.89765 3.74114 5.60299C3.67614 5.30832 3.58514 5.09165 3.46814 4.95299C3.35114 4.80999 3.20381 4.73849 3.02614 4.73849C2.83547 4.73849 2.67731 4.84249 2.55164 5.05049C2.42597 5.25415 2.33281 5.57265 2.27214 6.00599C2.21581 6.43499 2.18764 6.99182 2.18764 7.67649V9.22349C2.18764 9.90815 2.21581 10.4672 2.27214 10.9005C2.33281 11.3295 2.42597 11.648 2.55164 11.856C2.67731 12.0597 2.83547 12.1615 3.02614 12.1615C3.20381 12.1615 3.35114 12.0922 3.46814 11.9535C3.58514 11.8105 3.67614 11.5917 3.74114 11.297C3.80614 11.0023 3.84731 10.6188 3.86464 10.1465H4.95664C4.92631 10.8485 4.83964 11.4205 4.69664 11.8625C4.55364 12.3045 4.34347 12.6317 4.06614 12.844C3.79314 13.052 3.44647 13.156 3.02614 13.156Z" fill="#E66D17"/>
<path d="M7.74687 13.156C7.31353 13.156 6.95603 13.026 6.67437 12.766C6.3927 12.5017 6.18253 12.103 6.04387 11.57C5.9052 11.0327 5.83587 10.3523 5.83587 9.52899V3.89999H6.92137V9.52899C6.92137 10.1227 6.9517 10.6145 7.01237 11.0045C7.07303 11.3945 7.16403 11.6848 7.28537 11.8755C7.4067 12.0618 7.56053 12.155 7.74687 12.155C7.93753 12.155 8.09353 12.0618 8.21487 11.8755C8.3362 11.6848 8.42503 11.3945 8.48137 11.0045C8.54203 10.6145 8.57237 10.1227 8.57237 9.52899V3.89999H9.66437V9.52899C9.66437 10.3523 9.59503 11.0327 9.45637 11.57C9.3177 12.103 9.10537 12.5017 8.81937 12.766C8.5377 13.026 8.1802 13.156 7.74687 13.156Z" fill="#E66D17"/>
<path d="M10.9155 13V3.89999H12.001V7.82599H13.535V3.89999H14.627V13H13.535V8.84649H12.001V13H10.9155Z" fill="#E66D17"/>
</svg>

<svg xmlns="http://www.w3.org/2000/svg" width="16" height="16" fill="none" viewBox="0 0 16 16"><path fill="#E66D17" d="M3.026 13.156q-.69 0-1.124-.41-.43-.416-.637-1.28t-.208-2.243V7.676q0-1.378.208-2.242.207-.864.637-1.274.435-.416 1.124-.416.63 0 1.04.318.416.312.63.975.216.663.26 1.716h-1.09a6.7 6.7 0 0 0-.124-1.15q-.097-.442-.273-.65a.55.55 0 0 0-.442-.215q-.286 0-.474.312-.19.306-.28.956-.084.644-.084 1.67v1.547q0 1.028.084 1.677.09.644.28.956.188.306.474.306.267 0 .442-.209.176-.214.273-.656t.124-1.15h1.092q-.045 1.052-.26 1.716t-.63.981q-.41.312-1.04.312m4.719 0q-.65 0-1.073-.39-.421-.396-.63-1.196-.208-.806-.208-2.041V3.9H6.92v5.629q0 .89.091 1.476.091.585.273.87.183.28.462.28.286 0 .468-.28.182-.285.266-.87.091-.585.091-1.476V3.9h1.092v5.629q0 1.235-.208 2.041-.207.8-.637 1.196-.422.39-1.072.39m3.17-.156V3.9H12v3.926h1.534V3.9h1.092V13h-1.092V8.846H12V13z"/></svg>
